X: 212
T: MISS JEANY ABERNETHIE
C: I. COOPER
R: Strathspey
B: Glen Collection p.21 #_
Z: 2011 John Chambers <jc:trillian.mit.edu>
M: C
L: 1/16
V: 1 middle=B clef=treble
V: 2 middle=d clef=bass
%%score {1 | 2}
K: C
V: 1
|:\
c3G E3G c3d e3c | d3f e3g fd3 d4 | (c3d e3)c G3c e3a | (Tg3f) (e3d) ec3 c4 :|
g3e c3g ec3 g3e | f3g (agfe) fd3 d4 | Tg3e c3g ec3 g3e | f3a Tg3f ec3 c4 ||
Tg3e c3g ec3 g3e | f3g (agfe) (fd3) d4 | c3G c3e d3f e3g | f3a Tg3f (ec3) c4 |]
V: 2
|:\
c4[c'4g4] e4[c'4g4] | [b4g4][c'4g4] [b4g4][b4g4] |\
c4[c'4g4] e4[c'4g4] | [b4g4][b4g4] [c'4c4][c'4c4] :|
e4[c'4g4] c4[c'4g4] | d4[d'4a4] g4[d'4b4] |\
e4[c'4g4] c4[c'4g4] | [b4g4][b4g4] [c'4c4][c'4c4] ||
e4[c'4g4] c4[c'4g4] | d4[d'4a4] g4[d'4b4] |\
e4[c'4g4] [b4g4][c'4g4] | [b4g4][b4g4] [c'4c4][c'4g4e4c4] |]
